X: 23778
T: Little Harvest Rose, The
R: barndance
M: 4/4
K: Fmajor
FG|A2 BA G2 AG|F2ff f2 c/d/f|ga/b/ ag fedc|c2d2 Tc2 FG|
A>cBA G>BcB|F2ff f2 c/d/f|gbag fedc|c2B2c2||
fe|eddc cAGF|FA/c/ ff f2 g/f/d|c>BAG BAGF|DFFG F2 fe|
eddc cAGF|Fc ff f2 g/f/e/d/|c2 AG BAGF|DFFG F2||

